public/about/why-panel-mobile.svg

<svg xmlns="http://www.w3.org/2000/svg" width="417" height="865" viewBox="0 0 417 865" fill="none">
  <foreignObject x="-24" y="-24" width="465" height="913"><div xmlns="http://www.w3.org/1999/xhtml" style="backdrop-filter:blur(12px);clip-path:url(#bgblur_why_panel_clip_path);height:100%;width:100%"></div></foreignObject>
  <path data-figma-bg-blur-radius="24" d="M417 120.313C417 89.9374 392.376 65.3131 362 65.3131H347.764C329.469 65.3131 312.371 56.2159 302.15 41.0426L290.85 24.2704C280.629 9.09721 263.531 0 245.236 0H55C24.6243 0 0 24.6243 0 55V810C0 840.376 24.6243 865 55 865H362C392.376 865 417 840.376 417 810V120.313Z" fill="#D9D9D9" fill-opacity="0.1"/>
  <defs>
    <clipPath id="bgblur_why_panel_clip_path" transform="translate(24 24)"><path d="M417 120.313C417 89.9374 392.376 65.3131 362 65.3131H347.764C329.469 65.3131 312.371 56.2159 302.15 41.0426L290.85 24.2704C280.629 9.09721 263.531 0 245.236 0H55C24.6243 0 0 24.6243 0 55V810C0 840.376 24.6243 865 55 865H362C392.376 865 417 840.376 417 810V120.313Z"/></clipPath>
  </defs>
</svg>

<svg xmlns="http://www.w3.org/2000/svg" width="417" height="865" fill="none" viewBox="0 0 417 865"><foreignObject width="465" height="913" x="-24" y="-24"><div xmlns="http://www.w3.org/1999/xhtml" style="backdrop-filter:blur(12px);clip-path:url(#a);height:100%;width:100%"/></foreignObject><path fill="#d9d9d9" fill-opacity=".1" d="M417 120.313c0-30.376-24.624-55-55-55h-14.236a55 55 0 0 1-45.614-24.27l-11.3-16.773A55 55 0 0 0 245.236 0H55C24.624 0 0 24.624 0 55v755c0 30.376 24.624 55 55 55h307c30.376 0 55-24.624 55-55z" data-figma-bg-blur-radius="24"/><defs><clipPath id="a" transform="translate(24 24)"><path d="M417 120.313c0-30.376-24.624-55-55-55h-14.236a55 55 0 0 1-45.614-24.27l-11.3-16.773A55 55 0 0 0 245.236 0H55C24.624 0 0 24.624 0 55v755c0 30.376 24.624 55 55 55h307c30.376 0 55-24.624 55-55z"/></clipPath></defs></svg>
